X: 8608
T: Cronin's
R: hornpipe
M: 4/4
K: Gmajor
[V:1]|:BA|GABd dBde|gage dega|bage dBGA|BAAG AcBA|
[V:2]|:x2|G,2 x2 [B,2F2]x2|[E2c2]x2[D2F2]x2|[G,2D2d2]x2 [B,2F2]x2|[C2G2]x2 [A,2F2]x2|
[V:1]GABd dBde|gage dega|bage dBAB|G2GF G2:|
[V:2]G,2 x2 [B,2F2][B,2F2]|[E2c2]x2[D2F2]x2|[C2G2e2]x2 [A,2F2]x2|[C2]x2 [B,2]:|
[V:1]|:fg|afd^c d2ga|bge^d e2ga|bgaf gedB|BAAG AcBA|
[V:2]|:x2|[D2A2] x2 [C2F2]x2|[G2e2]x2[E2c2]x2|[G,2D2d2][D2c2] [G,2D2B2]x2|[C2G2]x2 [A,2F2]x2|
[V:1]GABd dBde|gage dega|bage dBAB|G2GA G2:|
[V:2]G,2 x2 [B,2F2][B,2F2]|[E2c2]x2[D2F2]x2|[C2G2e2]x2 [A,2F2]x2|^C2=C2 [B,2]:|

